src/16/actions/im-groupwise.svg

<svg xmlns="http://www.w3.org/2000/svg" width="16" height="16" viewBox="0 0 16 16">
 <defs>
  <style id="current-color-scheme" type="text/css">
   .ColorScheme-Text { color:#565656; } .ColorScheme-Highlight { color:#5294e2; }
  </style>
 </defs>
 <path style="fill:currentColor" class="ColorScheme-Text" d="m2.9688 2s-1.9688 0-1.9688 2v6c0 1.108 0.892 2 2 2h5l2 3.004 2-3.004h1s2 0 2-2v-6c0-2-2-2-2-2h-10.031zm2.0312 2h2l2 2.6562v-2.6562h2v6h-2l-2-2.6797v2.6797h-2v-6z"/>
</svg>

<svg xmlns="http://www.w3.org/2000/svg" width="16" height="16"><defs><style id="current-color-scheme" type="text/css"></style></defs><path d="M2.969 2S1 2 1 4v6c0 1.108.892 2 2 2h5l2 3.004L12 12h1s2 0 2-2V4c0-2-2-2-2-2H2.969zM5 4h2l2 2.656V4h2v6H9L7 7.32V10H5V4z" fill="currentColor" color="#565656"/></svg>
